X:1
T:Sunlight
T:Winfield Scott Weeden
T:Sunlight
T:Public Domain
T:Public Domain
C:Winfield Scott Weeden
Z:Public Domain
%%score ( 1 2 ) ( 3 4 )
L:1/8
M:4/4
K:E
V:1 treble 
V:2 treble 
V:3 bass 
V:4 bass 
V:1
 B, | [B,E]>[B,E] [B,E]>[DF] [EG]>[EG] [EG]>[FA] | [GB]>[GB] [GB]>[Ac] [GB]3 [GB] | %3
w: 1.~I|dered in the shades of night, Till Je-|sus came to me, And with|
w: 2.~Tho’|may ga- ther in the sky, And bil-|lows round me roll, How- ev-|
w: 3.~I|the wide ex- tend- ed fields, I jour-|ney o’er the plain, And in|
w: 4.~Soon|shall see Him as He is, The Light|that came to me; Be- hold|
 [Ac]>[Ac] A>[Ac] [GB]>[GB] [GB]>[EG] | [DF]>[DB] [Fd]>[Ec] [DB]4{cd} || %5
w: the sun- light of His love Bid all|my dark- ness flee. *|
w: er dark the world may be I’ve sun-|light in my soul. *|
w: the sun- light of His love I reap|the gold- en grain. *|
w: the bright- ness of His face, Through- out|e- ter- ni- ty. *|
"^Refrain" [Ge]2 [Gd]2 [Gc]2 [GB]2 | [DA]>[DA] [DA]>[DA] [DA]4 | [Dd]2 [Dc]2 [DB]2 [DA]2 | %8
w: |||
w: |||
w: |||
w: |||
 [EG]>[FA] [GB]>[Ac] [GB]4 | [EG]>[DF] [EG]>[FA] [GB]2 [Gc]2 | [Ad]>[Ad] [Ad]>[Ad] (F>G A2) | %11
w: |||
w: |||
w: |||
w: |||
 [Ge]>[Ge] [Gd]>[Gc] [GB]>[Ac] [GB]>[FA] | [EG]2 [DF]2 E3 |] %13
w: ||
w: ||
w: ||
w: ||
V:2
 B, | x8 | x8 | x8 | x8 || x8 | x8 | x8 | x8 | x8 | x4 d4 | x8 | x4 E3 |] %13
w: wan-|||||||||||||
w: clouds|||||||||||||
w: cross|||||||||||||
w: I|||||||||||||
V:3
 [E,G,] | [E,G,]>[E,G,] [E,G,]>[E,A,] [E,B,]>[E,B,] [E,B,]>[E,B,] | %2
w: ~|~ ~ ~ ~ ~ ~ ~ ~|
 [E,E]>[E,E] [E,E]>[E,E] [E,E]3 [E,E] | [A,E]>[A,E] [A,C]>[A,E] [E,E]>[E,E] [E,E]>[E,B,] | %4
w: ~ ~ ~ ~ ~ ~|~ ~ ~ ~ ~ ~ ~ ~|
 [F,B,]>[F,B,] [F,^A,]>[F,A,] [B,,B,]4 || [E,B,]2 [E,B,]2 [E,B,]2 [E,B,]2 | %6
w: ~ ~ ~ ~ ~|Sun- light, sun- light|
 [F,B,]>[F,B,] [F,B,]>[F,B,] (F,>B, F,D,) | [B,,F,]2 [B,,A,]2 [B,,F,]2 [B,,B,]2 | %8
w: in my soul to- day, * * *|light, sun- light all|
 [E,B,]>[E,B,] [E,E]>[E,E] (E>B, G,2) | [E,B,]>[E,B,] [E,B,]>[E,B,] [E,E]2 [E,B,]2 | %10
w: a- long the way; Since * *|Sav- ior found me, took a-|
 [B,,B,]>[B,,B,] [B,,B,]>[B,,B,] [B,,B,]4 | [E,B,]>[E,B,] [E,B,]>[E,B,] [E,E]>[E,E] [E,E]>[A,,C] | %12
w: way my sin, I have|had the sun- light of His love with-|
 [B,,B,]2 [B,,A,]2 [E,G,]3 |] %13
w: in. * *|
V:4
 x | x8 | x8 | x8 | x8 || x8 | x4 B,4 | x8 | x4 E,4 | x8 | x8 | x8 | x7 |] %13
w: ||||||Sun-||the|||||

